jsapp/svg-icons/linkedin.svg

<svg height="40" viewBox="0 0 40 40" width="40" xmlns="http://www.w3.org/2000/svg"><path d="m21.520209 17.9672045c.8373134-1.0758209 1.8791045-1.7558209 3.2059702-1.8856716 2.7146268-.2653732 4.8253731.9376119 5.5310447 3.7749254.1674627.6731343.2471642 1.3832835.2561194 2.0782089.0307463 2.3862687.0035821 4.7737314.0211941 7.1602985.002985.4083582-.1214926.5277612-.5253732.518806-1.1367164-.0247761-2.2743283-.0083582-3.4116418-.0089552-.5832835 0-.5853731-.0005971-.5856716-.5692538-.0008955-2.162388.0038806-4.3247761-.0047761-6.4868656-.0014925-.3764179-.0241791-.7579105-.0913433-1.1271642-.1561194-.8573135-.5641791-1.5423881-1.4776119-1.7480597-.997015-.2244776-1.8235821.0841791-2.4411941.9131343-.3695522.4958209-.4749253 1.0686567-.4755224 1.6677612-.0026865 2.2608955-.001194 4.521194-.001194 6.781791v.5232836c-.141791.018209-.2486567.0432836-.3552239.0432836-1.2358209.0026866-2.4713432-.0086567-3.7065671.0089552-.3301493.0044776-.3943284-.1214925-.3937314-.4194029.0080597-4.1417911.0098508-8.2838806-.0008955-12.4259702-.0008955-.3408955.1185075-.4397015.4367164-.4370149 1.1931344.0101492 2.3868657.0140298 3.58-.0020896.3567164-.0047761.4674627.1271642.4456717.4695523-.0250747.3886567-.0059702.78-.0059702 1.1704477zm-6.7532836 5.0323582c0 2.0220896-.0101492 4.0441791.0083582 6.0659702.0038806.4170149-.1050746.5608955-.5414925.5495522-1.1647761-.0298507-2.3310448-.0220895-3.4961194-.0032836-.3543284.0056717-.4931343-.0791044-.4919403-.4641791.0119403-4.1143283.0116418-8.2283582.0002985-12.342388-.0008955-.3802985.140597-.4820896.4946269-.4779105 1.1791045.0146269 2.3591045.018806 3.5382089-.0014925.4011941-.0068657.497015.1522388.4943284.5235821-.0134328 2.0501492-.0062687 4.1-.0062687 6.1501492zm.2632239-10.6376716c-.0008955 1.3271642-1.0695522 2.3086567-2.5235821 2.3185075-1.4191045.0095522-2.5065671-1.0062687-2.5065671-2.3417911-.00029855-1.3444776 1.0985074-2.35014925 2.5540298-2.3385075 1.4432836.0119403 2.4770149.998209 2.4761194 2.3617911z" fill-rule="evenodd"/></svg>

<?xml version="1.0" encoding="UTF-8"?>
<svg width="40px" height="40px" viewBox="0 0 40 40" version="1.1" xmlns="http://www.w3.org/2000/svg" xmlns:xlink="http://www.w3.org/1999/xlink">
    <!-- Generator: Sketch 50.2 (55047) - http://www.bohemiancoding.com/sketch -->
    <title>Icons/linkedin</title>
    <desc>Created with Sketch.</desc>
    <defs>
        <path d="M21.520209,17.9672045 C22.3575224,16.8913836 23.3993135,16.2113836 24.7261792,16.0815329 C27.440806,15.8161597 29.5515523,17.0191448 30.2572239,19.8564583 C30.4246866,20.5295926 30.5043881,21.2397418 30.5133433,21.9346672 C30.5440896,24.3209359 30.5169254,26.7083986 30.5345374,29.0949657 C30.5375224,29.5033239 30.4130448,29.6227269 30.0091642,29.6137717 C28.8724478,29.5889956 27.7348359,29.6054135 26.5975224,29.6048165 C26.0142389,29.6048165 26.0121493,29.6042194 26.0118508,29.0355627 C26.0109553,26.8731747 26.0157314,24.7107866 26.0070747,22.5486971 C26.0055822,22.1722792 25.9828956,21.7907866 25.9157314,21.4215329 C25.759612,20.5642194 25.3515523,19.8791448 24.4381195,19.6734732 C23.4411045,19.4489956 22.6145374,19.7576523 21.9969254,20.5866075 C21.6273732,21.0824284 21.5220001,21.6552642 21.521403,22.2543687 C21.5187165,24.5152642 21.520209,26.7755627 21.520209,29.0361597 L21.520209,29.5594433 C21.378418,29.5776523 21.2715523,29.6027269 21.1649851,29.6027269 C19.9291642,29.6054135 18.6936419,29.5940702 17.458418,29.6116821 C17.1282687,29.6161597 17.0640896,29.4901896 17.0646866,29.1922792 C17.0727463,25.0504881 17.0745374,20.9083986 17.0637911,16.766309 C17.0628956,16.4254135 17.1822986,16.3266075 17.5005075,16.3292941 C18.6936419,16.3394433 19.8873732,16.3433239 21.0805075,16.3272045 C21.4372239,16.3224284 21.5479702,16.4543687 21.5261792,16.7967568 C21.5011045,17.1854135 21.520209,17.5767568 21.520209,17.9672045 Z M14.7669254,22.9995627 C14.7669254,25.0216523 14.7567762,27.0437418 14.7752836,29.0655329 C14.7791642,29.4825478 14.670209,29.6264284 14.2337911,29.6150851 C13.069015,29.5852344 11.9027463,29.5929956 10.7376717,29.6118015 C10.3833433,29.6174732 10.2445374,29.5326971 10.2457314,29.1476224 C10.2576717,25.0332941 10.2573732,20.9192642 10.2460299,16.8052344 C10.2451344,16.4249359 10.3866269,16.3231448 10.7406568,16.3273239 C11.9197613,16.3419508 13.0997613,16.3461299 14.2788657,16.3258314 C14.6800598,16.3189657 14.7758807,16.4780702 14.7731941,16.8494135 C14.7597613,18.8995627 14.7669254,20.9494135 14.7669254,22.9995627 Z M15.0301493,12.3618911 C15.0292538,13.6890553 13.9605971,14.6705478 12.5065672,14.6803986 C11.0874627,14.6899508 10.0000001,13.6741299 10.0000001,12.3386075 C9.99970155,10.9941299 11.0985075,9.98845825 12.5540299,10.0001 C13.9973135,10.0120403 15.0310448,10.998309 15.0301493,12.3618911 Z" id="path-1"></path>
    </defs>
    <g id="Icons/linkedin" stroke="none" stroke-width="1" fill="none" fill-rule="evenodd">
        <mask id="mask-2" fill="white">
            <use xlink:href="#path-1"></use>
        </mask>
        <use id="Mask" fill="#000000" xlink:href="#path-1"></use>
    </g>
</svg>
